Simply-Purple-Circles/scalable/apps/qupzilla.svg

<svg xmlns="http://www.w3.org/2000/svg" width="48" height="48" viewBox="0 0 12.7 12.7"><path d="M6.34.07a6.29 6.29 0 0 0-6.29 6.3 6.29 6.29 0 0 0 6.3 6.28 6.29 6.29 0 0 0 4.97-2.45c-.05.02-.1.06-.16.07a2.3 2.3 0 0 1-.78-.02c-.07 0-.13-.04-.2-.05a5.4 5.4 0 0 1-3.85 1.62 5.4 5.4 0 0 1-5.41-5.4A5.4 5.4 0 0 1 6.32 1a5.4 5.4 0 0 1 5.41 5.4 5.4 5.4 0 0 1-.54 2.34c.24.17.48.31.72.4h.06a6.29 6.29 0 0 0 .66-2.79A6.29 6.29 0 0 0 6.34.07z" fill="#963996"/><path d="M4.25 6.25l-2.85.37L1.3 9.6C6.22 6.45 9.4 11.54 12.6 9.5c-2.56 0-4.7-3.87-7.84-2.88z" fill="#963996" fill-rule="evenodd" opacity=".75"/><path d="M1.78 3.27a5.22 5.22 0 0 0-.41 6.03C5.4 4.3 7.52 7.84 10.75 5.12 7.85 5.7 7 2.1 1.78 3.27" fill="#963996" fill-rule="evenodd"/></svg>

<?xml version="1.0" encoding="UTF-8" standalone="no"?>
<svg
   xmlns:dc="http://purl.org/dc/elements/1.1/"
   xmlns:cc="http://creativecommons.org/ns#"
   xmlns:rdf="http://www.w3.org/1999/02/22-rdf-syntax-ns#"
   xmlns:svg="http://www.w3.org/2000/svg"
   xmlns="http://www.w3.org/2000/svg"
   xmlns:sodipodi="http://sodipodi.sourceforge.net/DTD/sodipodi-0.dtd"
   xmlns:inkscape="http://www.inkscape.org/namespaces/inkscape"
   width="48"
   height="48"
   viewBox="0 0 12.7 12.7"
   version="1.1"
   id="svg8"
   sodipodi:docname="qupzilla.svg"
   inkscape:version="0.92.4 (5da689c313, 2019-01-14)">
  <metadata
     id="metadata14">
    <rdf:RDF>
      <cc:Work
         rdf:about="">
        <dc:format>image/svg+xml</dc:format>
        <dc:type
           rdf:resource="http://purl.org/dc/dcmitype/StillImage" />
        <dc:title></dc:title>
      </cc:Work>
    </rdf:RDF>
  </metadata>
  <defs
     id="defs12" />
  <sodipodi:namedview
     pagecolor="#ffffff"
     bordercolor="#666666"
     borderopacity="1"
     objecttolerance="10"
     gridtolerance="10"
     guidetolerance="10"
     inkscape:pageopacity="0"
     inkscape:pageshadow="2"
     inkscape:window-width="1087"
     inkscape:window-height="480"
     id="namedview10"
     showgrid="false"
     inkscape:zoom="4.9166667"
     inkscape:cx="2.1355932"
     inkscape:cy="24"
     inkscape:window-x="0"
     inkscape:window-y="25"
     inkscape:window-maximized="0"
     inkscape:current-layer="svg8" />
  <path
     d="m 6.34,0.07 a 6.29,6.29 0 0 0 -6.29,6.3 6.29,6.29 0 0 0 6.3,6.28 6.29,6.29 0 0 0 4.97,-2.45 c -0.05,0.02 -0.1,0.06 -0.16,0.07 a 2.3,2.3 0 0 1 -0.78,-0.02 c -0.07,0 -0.13,-0.04 -0.2,-0.05 A 5.4,5.4 0 0 1 6.33,11.82 5.4,5.4 0 0 1 0.92,6.42 5.4,5.4 0 0 1 6.32,1 5.4,5.4 0 0 1 11.73,6.4 5.4,5.4 0 0 1 11.19,8.74 c 0.24,0.17 0.48,0.31 0.72,0.4 h 0.06 A 6.29,6.29 0 0 0 12.63,6.35 6.29,6.29 0 0 0 6.34,0.07 Z"
     id="path2"
     inkscape:connector-curvature="0"
     style="fill:#963996" />
  <path
     d="M 4.25,6.25 1.4,6.62 1.3,9.6 C 6.22,6.45 9.4,11.54 12.6,9.5 10.04,9.5 7.9,5.63 4.76,6.62 Z"
     id="path4"
     inkscape:connector-curvature="0"
     style="opacity:0.75;fill:#963996;fill-rule:evenodd" />
  <path
     d="M 1.78,3.27 A 5.22,5.22 0 0 0 1.37,9.3 C 5.4,4.3 7.52,7.84 10.75,5.12 7.85,5.7 7,2.1 1.78,3.27"
     id="path6"
     inkscape:connector-curvature="0"
     style="fill:#963996;fill-rule:evenodd" />
</svg>
